X: 7
T: Tom Mhic's
M: 2/4
L: 1/8
R: polka
K: Gmaj
|: GA Bd | ed BG | AA/B/ cd | ed B>A |
GA Bd | ed B>G | AB cA | AG G2 :|
|: g2 f2 | ed Bd | e2 e>f | ed B/c/d/B/ |
g2 fg/f/ | ed B2 | A>B cA | AG G2 :|
